packages/storybook-static/storyboard-site/assets/textures/LateSunset.3dl
#Created by: Adobe Photoshop CS6
#Copyright: Copyright 2012 Adobe Systems Inc.
0 256 512 767 1023
0 0 0
48 0 466
257 0 931
0 64 1622
369 0 2007
369 401 610
273 385 899
225 369 1285
337 353 1686
546 369 2056
867 867 771
835 883 996
867 899 1333
996 899 1702
1188 947 2104
1927 1831 851
1991 1879 1028
2104 1895 1333
2312 1943 1638
2602 2023 1943
3196 3629 1718
3164 3629 1847
3196 3645 2248
3228 3726 2778
3308 3774 3292
482 0 209
466 16 642
369 48 1124
434 16 1670
610 16 2056
658 353 642
594 353 947
578 353 1317
594 385 1702
739 369 2023
1060 883 771
1012 867 996
1044 899 1333
1108 931 1734
1285 947 2104
2184 1895 803
2152 1895 996
2216 1895 1317
2425 1975 1606
2714 2039 1911
3276 3629 1783
3260 3694 1991
3260 3694 2329
3276 3726 2794
3356 3838 3404
1044 0 610
996 0 947
915 0 1301
947 16 1702
1012 64 2056
1124 321 691
1076 321 980
1060 337 1317
1060 385 1686
1156 434 2072
1445 915 803
1429 931 1028
1461 947 1365
1574 980 1734
1734 1044 2136
2569 1959 658
2553 1959 835
2666 2039 1172
2826 2088 1510
3067 2184 1911
3501 3726 1975
3485 3774 2168
3453 3774 2505
3485 3838 2987
3517 3886 3501
1574 0 691
1542 0 980
1526 0 1349
1542 64 1686
1654 128 2072
1654 369 723
1622 385 1012
1622 401 1349
1718 466 1718
1783 530 2104
2072 1044 867
2072 1044 1060
2056 1060 1397
2184 1124 1799
2377 1204 2152
3244 2216 337
3244 2200 658
3356 2280 1092
3421 2329 1542
3597 2505 2104
3806 3886 2296
3790 3886 2425
3790 3934 2794
3806 3950 3228
3806 3983 3677
2248 289 755
2248 257 1028
2296 337 1413
2329 434 1734
2473 530 2136
2377 578 803
2425 610 1012
2393 658 1413
2505 691 1750
2714 835 2136
2907 1333 851
2955 1365 1044
3035 1397 1333
3148 1445 1670
3356 1558 1943
3967 2650 835
3999 2682 1076
3983 2746 1574
4031 2810 2072
4095 2923 2650
4095 4063 2618
4095 4047 2746
4095 4031 3035
4095 4063 3549
4095 4095 4031
