packages/storybook-static/storyboard-site/assets/textures/LateSunset.3dl
#Created by: Adobe Photoshop CS6
#Copyright: Copyright 2012 Adobe Systems Inc.
0 128 256 384 512 639 767 895 1023
0 0 0
0 0 225
48 0 466
257 0 674
257 0 931
32 80 1301
0 64 1622
80 32 1847
369 0 2007
0 209 193
0 193 353
96 177 626
96 177 867
48 193 1140
0 193 1429
96 161 1670
257 128 1863
434 161 2039
369 401 610
305 385 723
273 385 899
225 369 1108
225 369 1285
305 369 1493
337 353 1686
401 353 1863
546 369 2056
610 610 707
578 626 803
530 610 964
562 626 1140
514 626 1349
562 594 1510
626 610 1686
707 610 1895
819 626 2072
867 867 771
867 883 851
835 883 996
851 899 1172
867 899 1333
883 899 1542
996 899 1702
1060 915 1911
1188 947 2104
1301 1285 851
1285 1285 899
1301 1285 1044
1317 1285 1204
1365 1285 1397
1429 1301 1558
1493 1317 1734
1622 1365 1943
1750 1381 2136
1927 1831 851
1927 1847 964
1991 1879 1028
2056 1895 1188
2104 1895 1333
2168 1911 1493
2312 1943 1638
2409 1959 1799
2602 2023 1943
2923 2698 482
2891 2698 530
2891 2682 691
2923 2698 931
2971 2730 1188
3019 2762 1445
3067 2778 1670
3180 2842 1959
3244 2875 2216
3196 3629 1718
3212 3597 1750
3164 3629 1847
3196 3645 2088
3196 3645 2248
3196 3661 2505
3228 3726 2778
3244 3726 3019
3308 3774 3292
225 0 0
225 0 225
257 0 482
321 0 755
241 32 1028
112 80 1349
0 80 1638
353 0 1847
434 0 2023
273 177 273
273 177 450
225 209 723
177 193 947
80 193 1204
64 193 1461
321 128 1654
353 145 1863
482 128 2039
450 385 610
418 385 755
385 385 915
385 385 1140
353 369 1317
401 369 1477
434 385 1686
546 369 1895
626 353 2039
658 610 723
642 626 819
626 626 980
626 594 1108
594 594 1317
642 610 1526
723 626 1686
755 626 1895
899 626 2072
915 883 755
899 883 867
931 899 1012
899 883 1172
931 899 1333
980 899 1542
1044 915 1734
1124 915 1911
1237 947 2088
1333 1285 867
1333 1285 915
1317 1285 1044
1333 1269 1204
1413 1301 1381
1445 1317 1542
1526 1333 1750
1638 1365 1943
1750 1381 2104
2039 1863 851
2023 1879 915
2072 1911 1012
2088 1895 1188
2168 1927 1317
2200 1911 1461
2329 1927 1622
2457 1975 1783
2585 2007 1943
2923 2698 418
2907 2682 466
2923 2714 723
2939 2698 931
2971 2714 1188
3051 2762 1445
3083 2762 1654
3196 2858 1975
3260 2858 2216
3212 3613 1702
3244 3661 1831
3196 3613 1863
3228 3645 2104
3228 3677 2329
3228 3694 2537
3260 3710 2778
3276 3758 3083
3308 3822 3340
482 0 209
498 0 401
466 16 642
418 64 867
369 48 1124
337 64 1477
434 16 1670
514 0 1847
610 16 2056
546 161 434
498 177 594
450 193 851
401 193 1076
385 177 1285
434 145 1477
466 128 1686
562 128 1895
658 128 2039
658 353 642
642 369 755
594 353 947
578 369 1124
578 353 1317
594 369 1510
594 385 1702
691 369 1879
739 369 2023
835 610 723
787 610 835
755 594 964
739 594 1140
739 610 1349
755 610 1526
819 610 1686
899 626 1879
980 626 2072
1060 883 771
1012 867 867
1012 867 996
1028 915 1188
1044 899 1333
1076 915 1558
1108 931 1734
1188 931 1911
1285 947 2104
1461 1301 851
1461 1285 931
1477 1317 1060
1477 1301 1204
1477 1317 1381
1542 1317 1542
1654 1381 1750
1718 1365 1943
1911 1429 2136
2184 1895 803
2120 1879 883
2152 1895 996
2200 1911 1140
2216 1895 1317
2329 1943 1477
2425 1975 1606
2569 1991 1783
2714 2039 1911
2987 2698 450
2987 2682 514
3019 2730 771
3003 2730 980
3051 2762 1204
3099 2762 1461
3148 2858 1766
3228 2858 1975
3276 2875 2232
3276 3629 1783
3276 3645 1831
3260 3694 1991
3260 3677 2120
3260 3694 2329
3276 3710 2585
3276 3726 2794
3340 3742 3083
3356 3838 3404
723 48 514
707 32 642
674 48 883
658 48 1108
674 0 1285
674 0 1477
723 0 1654
771 0 1863
851 0 2039
803 112 578
771 145 755
739 112 915
707 112 1124
707 128 1301
739 112 1493
739 96 1686
739 128 1863
835 145 2056
867 337 642
851 321 771
835 353 980
835 337 1140
771 353 1301
787 353 1493
867 369 1718
867 385 1879
980 385 2056
996 610 755
1012 610 835
980 610 996
947 610 1172
947 610 1333
964 610 1510
996 626 1702
1060 642 1895
1140 658 2088
1237 899 819
1204 883 883
1188 883 996
1204 915 1220
1237 931 1365
1269 931 1558
1317 931 1718
1381 964 1911
1493 980 2104
1638 1301 851
1622 1301 931
1622 1317 1044
1622 1317 1204
1638 1317 1381
1750 1349 1558
1815 1413 1783
1959 1429 1959
1991 1461 2136
2312 1911 755
2312 1911 819
2377 1943 899
2361 1943 1076
2409 1959 1269
2489 1975 1413
2618 2023 1542
2730 2039 1734
2875 2136 1895
3131 2762 578
3115 2778 626
3131 2762 787
3164 2810 1076
3148 2794 1253
3212 2875 1558
3276 2875 1815
3292 2891 2023
3404 2971 2361
3356 3677 1879
3356 3694 1911
3340 3677 2007
3324 3726 2232
3340 3726 2409
3356 3758 2682
3372 3742 2875
3388 3838 3196
3437 3854 3453
1044 0 610
1012 0 755
996 0 947
947 0 1108
915 0 1301
947 0 1493
947 16 1702
1028 0 1863
1012 64 2056
1044 80 626
1028 64 755
1012 80 947
996 96 1140
980 80 1317
980 128 1510
980 128 1702
1060 128 1879
1092 161 2056
1124 321 691
1108 337 803
1076 321 980
1076 337 1140
1060 337 1317
1044 353 1493
1060 385 1686
1092 385 1895
1156 434 2072
1204 594 739
1220 594 835
1204 626 996
1220 626 1172
1188 626 1349
1204 642 1542
1253 642 1702
1317 658 1895
1397 691 2088
1445 915 803
1445 915 867
1429 931 1028
1445 915 1188
1461 947 1365
1461 964 1542
1574 980 1734
1606 1012 1943
1734 1044 2136
1879 1349 867
1879 1365 931
1879 1365 1076
1895 1365 1220
1895 1397 1413
1959 1397 1574
2039 1445 1766
2120 1493 1959
2248 1526 2152
2569 1959 658
2569 1975 739
2553 1959 835
2634 1991 1012
2666 2039 1172
2698 2023 1365
2826 2088 1510
2907 2120 1702
3067 2184 1911
3292 2858 723
3292 2842 803
3292 2858 947
3340 2875 1188
3324 2891 1397
3340 2891 1654
3388 2987 1959
3453 3051 2232
3501 3035 2505
3501 3726 1975
3501 3758 2072
3485 3774 2168
3469 3742 2329
3453 3774 2505
3485 3806 2746
3485 3838 2987
3501 3870 3244
3517 3886 3501
1285 0 642
1253 0 755
1237 0 947
1269 0 1140
1237 0 1333
1220 0 1510
1237 16 1686
1285 32 1879
1333 128 2056
1301 48 674
1301 80 803
1301 80 996
1253 112 1156
1237 112 1317
1253 96 1510
1301 128 1702
1301 193 1895
1365 241 2072
1365 353 691
1333 353 819
1333 353 996
1317 353 1172
1317 353 1333
1349 369 1510
1381 401 1718
1397 434 1895
1461 434 2088
1493 626 771
1493 626 835
1477 626 1012
1445 642 1188
1477 642 1349
1526 674 1558
1526 707 1750
1590 691 1911
1670 723 2104
1750 964 835
1718 964 899
1718 980 1044
1750 980 1204
1750 980 1397
1750 996 1574
1863 1044 1750
1927 1076 1927
2007 1092 2136
2184 1429 851
2184 1445 915
2152 1429 1044
2184 1445 1220
2216 1445 1397
2248 1477 1574
2312 1526 1766
2393 1574 1975
2585 1622 2104
2907 2088 482
2939 2136 578
2939 2136 691
2939 2120 915
2955 2120 1092
3035 2168 1317
3115 2200 1510
3260 2280 1718
3308 2280 1895
3469 2939 883
3469 2971 1044
3485 2971 1172
3485 2955 1349
3549 3035 1638
3533 3051 1879
3549 3083 2168
3597 3164 2409
3613 3196 2714
3645 3822 2184
3645 3822 2184
3645 3822 2280
3645 3854 2473
3629 3838 2666
3597 3854 2826
3613 3886 3131
3645 3950 3372
3677 3934 3613
1574 0 691
1558 0 819
1542 0 980
1510 0 1156
1526 0 1349
1542 48 1510
1542 64 1686
1606 112 1911
1654 128 2072
1606 128 707
1590 80 819
1558 112 1012
1542 145 1172
1558 177 1349
1590 177 1526
1606 145 1718
1622 257 1895
1702 257 2088
1654 369 723
1654 385 851
1622 385 1012
1654 418 1188
1622 401 1349
1638 434 1558
1718 466 1718
1750 466 1911
1783 530 2104
1815 691 787
1799 691 883
1783 707 1044
1783 707 1204
1783 707 1365
1815 739 1558
1879 739 1750
1927 787 1927
2007 819 2104
2072 1044 867
2056 1044 899
2072 1044 1060
2056 1060 1220
2056 1060 1397
2136 1092 1558
2184 1124 1799
2248 1172 1959
2377 1204 2152
2521 1558 867
2505 1558 947
2537 1574 1060
2489 1542 1220
2602 1590 1381
2666 1606 1558
2746 1638 1702
2858 1686 1831
2939 1702 1991
3244 2216 337
3228 2200 401
3244 2200 658
3260 2232 851
3356 2280 1092
3388 2296 1317
3421 2329 1542
3517 2393 1815
3597 2505 2104
3677 3067 1188
3694 3115 1301
3694 3099 1397
3694 3115 1590
3694 3148 1847
3742 3148 2056
3710 3244 2377
3758 3276 2666
3806 3340 2987
3806 3886 2296
3854 3886 2345
3790 3886 2425
3822 3934 2634
3790 3934 2794
3790 3934 3003
3806 3950 3228
3790 3967 3453
3806 3983 3677
1863 32 723
1847 48 835
1847 80 1012
1847 161 1204
1847 161 1365
1895 145 1542
1911 193 1734
1943 241 1911
2023 305 2120
1879 225 723
1911 209 835
1879 225 996
1911 241 1204
1895 305 1365
1911 305 1558
1959 305 1718
1975 353 1911
2088 418 2088
1991 498 771
1991 466 867
1959 466 1028
1991 498 1204
1975 482 1381
2023 530 1558
2088 530 1750
2120 578 1927
2216 626 2104
2168 771 819
2152 771 883
2168 803 1028
2168 803 1220
2200 819 1397
2216 835 1590
2280 851 1750
2361 915 1927
2425 947 2120
2441 1156 819
2473 1156 915
2441 1156 1044
2505 1204 1253
2521 1204 1429
2521 1237 1606
2602 1253 1783
2714 1317 1991
2826 1365 2136
3003 1718 658
2987 1686 739
3003 1702 867
3035 1718 1076
3003 1702 1204
3148 1766 1413
3212 1799 1542
3324 1863 1734
3404 1911 1911
3629 2409 466
3629 2425 578
3613 2425 771
3645 2441 996
3661 2441 1188
3710 2505 1477
3726 2521 1718
3790 2602 2007
3870 2698 2345
3918 3260 1526
3902 3276 1606
3902 3276 1702
3902 3308 1943
3918 3340 2168
3918 3356 2409
3934 3404 2634
3918 3453 2971
3950 3469 3212
4015 3967 2409
3999 3967 2473
4015 3967 2569
4015 3999 2730
3999 3983 2891
4015 3999 3099
3999 3999 3340
3967 4015 3533
3967 4063 3838
2248 289 755
2248 289 851
2248 257 1028
2264 337 1204
2296 337 1413
2280 401 1574
2329 434 1734
2409 466 1943
2473 530 2136
2296 401 787
2296 401 883
2280 434 1044
2296 418 1220
2312 482 1397
2361 466 1574
2393 498 1750
2425 578 1927
2505 562 2136
2377 578 803
2409 626 883
2425 610 1012
2425 642 1237
2393 658 1413
2441 691 1574
2505 691 1750
2569 755 1943
2714 835 2136
2634 931 851
2585 947 915
2634 964 1076
2602 964 1220
2682 1012 1445
2698 1028 1590
2730 1044 1766
2842 1092 1991
2923 1156 2168
2907 1333 851
2971 1365 899
2955 1365 1044
3019 1397 1220
3035 1397 1333
3051 1429 1526
3148 1445 1670
3260 1493 1815
3356 1558 1943
3501 1927 385
3501 1927 498
3485 1911 658
3565 1975 883
3565 1943 1108
3613 1975 1301
3726 2056 1542
3742 2056 1750
3886 2168 2023
3967 2650 835
3950 2634 867
3999 2682 1076
3983 2682 1301
3983 2746 1574
3999 2746 1783
4031 2810 2072
4079 2842 2345
4095 2923 2650
4095 3469 1911
4095 3469 1943
4095 3485 2088
4095 3485 2248
4095 3517 2489
4095 3533 2698
4095 3581 2955
4095 3629 3244
4095 3677 3517
4095 4063 2618
4095 4063 2650
4095 4047 2746
4095 4063 2891
4095 4031 3035
4095 4063 3324
4095 4063 3549
4095 4079 3790
4095 4095 4031
