packages/storybook-static/storyboard-site/assets/textures/LateSunset.3dl
#Created by: Adobe Photoshop CS6
#Copyright: Copyright 2012 Adobe Systems Inc.
0 64 128 192 256 320 384 448 512 575 639 703 767 831 895 959 1023
0 0 0
0 0 80
0 0 225
0 0 369
48 0 466
161 0 562
257 0 674
241 0 819
257 0 931
145 32 1108
32 80 1301
16 64 1461
0 64 1622
96 32 1766
80 32 1847
225 32 1943
369 0 2007
0 48 0
0 80 128
0 64 273
0 64 401
80 48 514
145 32 610
145 48 755
161 80 931
96 96 1060
32 128 1204
0 128 1397
0 128 1526
0 96 1622
177 64 1766
241 48 1847
337 32 1943
369 64 2056
0 209 193
0 209 257
0 193 353
0 209 498
96 177 626
64 177 739
96 177 867
64 193 996
48 193 1140
0 193 1285
0 193 1429
48 177 1590
96 161 1670
241 128 1750
257 128 1863
337 128 1959
434 161 2039
112 321 418
112 305 482
112 321 610
112 305 691
80 289 771
16 305 931
32 305 1076
0 289 1140
48 273 1269
48 273 1397
177 273 1477
177 257 1606
241 257 1686
289 241 1766
369 257 1863
434 257 1943
514 257 2039
369 401 610
337 401 674
305 385 723
273 401 835
273 385 899
193 385 1044
225 369 1108
289 369 1220
225 369 1285
241 369 1413
305 369 1493
337 353 1590
337 353 1686
401 369 1766
401 353 1863
498 385 1975
546 369 2056
466 498 658
482 498 707
434 514 787
434 482 867
385 498 931
434 498 1028
418 482 1124
401 482 1220
418 482 1317
418 482 1397
450 482 1510
466 498 1606
514 482 1702
562 498 1783
610 498 1863
642 498 1975
691 498 2056
610 610 707
594 610 755
578 626 803
562 626 915
530 610 964
562 626 1060
562 626 1140
578 626 1220
514 626 1349
546 610 1429
562 594 1510
578 610 1606
626 610 1686
691 610 1799
707 610 1895
739 642 1991
819 626 2072
739 739 739
723 755 787
739 739 851
723 771 931
739 755 980
707 739 1060
691 755 1172
723 755 1269
707 755 1333
723 755 1429
755 771 1526
755 739 1606
803 771 1718
803 755 1799
867 771 1895
931 787 1975
980 771 2088
867 867 771
867 883 819
867 883 851
851 899 931
835 883 996
835 899 1108
851 899 1172
867 883 1253
867 899 1333
883 899 1445
883 899 1542
947 883 1606
996 899 1702
1044 931 1847
1060 915 1911
1076 947 2007
1188 947 2104
1044 1060 835
1044 1060 867
1044 1060 899
1028 1060 947
1044 1076 1044
1060 1076 1124
1060 1076 1204
1076 1060 1285
1076 1060 1349
1092 1076 1461
1156 1092 1542
1172 1108 1638
1204 1108 1734
1285 1124 1847
1317 1108 1911
1397 1140 2023
1477 1172 2136
1301 1285 851
1317 1301 899
1285 1285 899
1317 1285 996
1301 1285 1044
1285 1269 1108
1317 1285 1204
1349 1317 1317
1365 1285 1397
1381 1301 1461
1429 1301 1558
1445 1317 1654
1493 1317 1734
1510 1333 1863
1622 1365 1943
1670 1365 2039
1750 1381 2136
1606 1542 883
1590 1558 915
1606 1542 931
1606 1558 996
1590 1558 1060
1606 1558 1140
1606 1542 1220
1654 1542 1285
1638 1542 1397
1750 1606 1493
1750 1590 1574
1750 1590 1654
1863 1622 1750
1895 1606 1831
1943 1638 1991
2056 1670 2039
2104 1670 2136
1927 1831 851
1959 1831 899
1927 1847 964
1943 1831 980
1991 1879 1028
1991 1863 1108
2056 1895 1188
2072 1895 1269
2104 1895 1333
2152 1927 1413
2168 1911 1493
2200 1911 1574
2312 1943 1638
2329 1943 1734
2409 1959 1799
2521 2007 1879
2602 2023 1943
2441 2200 450
2441 2216 514
2489 2264 562
2425 2216 642
2505 2248 707
2505 2248 819
2553 2280 883
2553 2280 996
2585 2280 1076
2585 2280 1204
2666 2296 1301
2682 2312 1381
2762 2329 1477
2810 2361 1574
2858 2361 1686
2955 2393 1783
3019 2425 1927
2923 2698 482
2907 2682 466
2891 2698 530
2875 2650 546
2891 2682 691
2907 2698 787
2923 2698 931
2955 2698 1092
2971 2730 1188
2955 2714 1285
3019 2762 1445
3035 2762 1542
3067 2778 1670
3115 2794 1783
3180 2842 1959
3196 2842 2072
3244 2875 2216
3115 3131 996
3131 3115 1028
3115 3131 1028
3099 3131 1124
3099 3131 1156
3099 3180 1349
3131 3180 1429
3164 3196 1558
3148 3196 1670
3148 3228 1815
3196 3212 1927
3180 3244 2072
3212 3276 2232
3244 3292 2345
3244 3276 2441
3292 3308 2602
3292 3356 2762
3196 3629 1718
3196 3629 1718
3212 3597 1750
3180 3629 1783
3164 3629 1847
3164 3661 2023
3196 3645 2088
3212 3629 2152
3196 3645 2248
3196 3694 2425
3196 3661 2505
3228 3677 2618
3228 3726 2778
3244 3726 2923
3244 3726 3019
3292 3774 3196
3308 3774 3292
96 0 0
96 0 80
48 0 289
80 0 369
193 0 498
225 0 594
257 0 707
257 0 835
209 32 1028
145 48 1156
48 80 1349
0 64 1461
0 80 1654
96 32 1718
273 0 1815
289 16 1927
385 0 2023
64 48 0
80 32 96
0 64 305
96 48 401
112 16 482
209 32 626
241 48 771
225 64 915
145 80 1060
112 112 1253
0 128 1397
0 128 1526
80 80 1638
177 64 1766
337 64 1847
401 32 1927
369 64 2056
128 177 161
64 177 257
112 177 385
128 177 530
128 193 642
145 193 771
96 177 851
128 193 1028
48 193 1172
0 193 1317
0 193 1461
177 145 1558
96 161 1654
241 128 1734
273 145 1879
385 112 1927
482 128 2039
257 289 450
241 305 498
177 305 578
193 305 707
193 289 819
112 305 915
80 305 1076
16 289 1172
48 289 1269
161 257 1365
161 257 1461
241 241 1606
241 257 1686
289 241 1766
369 241 1879
434 257 1943
498 241 2039
418 385 594
369 401 674
337 385 739
289 385 819
305 401 931
273 385 1028
273 385 1108
305 385 1220
289 369 1301
305 385 1413
289 369 1493
353 369 1590
353 353 1686
434 369 1783
482 369 1863
546 385 1959
578 353 2056
530 482 642
498 482 707
466 498 771
482 498 851
450 498 947
466 482 1028
434 482 1124
450 498 1220
482 498 1333
418 482 1397
450 498 1510
514 498 1622
546 482 1686
562 482 1783
610 498 1863
626 482 1975
739 498 2072
658 610 723
626 610 771
594 610 803
594 610 867
594 626 996
562 610 1060
562 610 1108
610 626 1237
562 610 1317
546 594 1429
626 594 1510
594 610 1622
626 610 1686
691 610 1799
707 610 1895
819 642 1975
883 610 2056
771 739 739
755 739 803
739 739 835
739 755 899
739 755 980
707 755 1060
707 739 1172
723 755 1269
707 755 1333
739 771 1445
755 771 1526
771 755 1606
835 771 1734
835 771 1783
915 771 1895
915 771 1975
1012 771 2056
883 883 787
899 883 803
867 883 851
883 899 915
883 899 1028
867 883 1092
867 883 1156
867 883 1253
899 883 1333
899 899 1429
980 899 1542
947 899 1638
1012 915 1734
1044 931 1831
1092 931 1911
1108 931 2007
1172 947 2088
1092 1060 835
1076 1076 851
1044 1060 867
1060 1060 931
1060 1076 1044
1060 1076 1124
1092 1060 1172
1092 1076 1285
1108 1076 1349
1108 1076 1429
1140 1076 1526
1188 1076 1622
1237 1092 1734
1285 1108 1847
1333 1124 1927
1397 1140 2023
1477 1172 2136
1333 1285 867
1333 1285 883
1317 1269 899
1317 1285 996
1301 1269 1060
1301 1285 1140
1317 1285 1220
1365 1301 1285
1397 1317 1381
1413 1317 1477
1445 1317 1574
1461 1317 1622
1493 1317 1750
1526 1317 1863
1638 1365 1943
1686 1365 2023
1766 1397 2120
1606 1542 883
1622 1542 915
1606 1542 931
1622 1558 980
1622 1558 1060
1638 1558 1156
1654 1558 1220
1718 1590 1301
1702 1590 1397
1734 1590 1493
1799 1590 1590
1766 1590 1670
1847 1622 1766
1911 1606 1863
1975 1670 1975
2007 1654 2072
2104 1686 2152
2023 1895 851
1975 1847 899
1927 1847 964
2007 1879 947
2007 1879 1044
2007 1863 1108
2023 1863 1204
2072 1879 1269
2072 1879 1349
2104 1879 1429
2184 1911 1493
2200 1911 1590
2312 1943 1622
2329 1943 1734
2425 1975 1783
2505 1991 1879
2602 2023 1959
2441 2216 514
2441 2216 514
2441 2216 562
2489 2248 610
2505 2248 707
2489 2248 819
2553 2280 883
2569 2264 996
2569 2280 1108
2585 2280 1204
2666 2296 1301
2666 2312 1381
2762 2345 1493
2778 2329 1574
2875 2361 1686
2955 2393 1783
3035 2441 1927
2907 2682 466
2891 2634 418
2875 2698 466
2923 2698 594
2907 2698 691
2923 2714 803
2939 2698 931
2955 2698 1060
2971 2730 1204
2971 2714 1285
3019 2762 1445
3035 2762 1542
3099 2762 1654
3115 2794 1783
3180 2842 1959
3228 2891 2136
3276 2875 2232
3115 3131 996
3131 3180 1076
3131 3196 1172
3131 3196 1220
3115 3196 1285
3115 3196 1317
3131 3180 1429
3099 3180 1526
3180 3180 1654
3164 3228 1831
3196 3212 1911
3180 3212 2023
3212 3276 2232
3228 3276 2345
3244 3276 2441
3276 3308 2602
3324 3356 2810
3180 3613 1702
3228 3613 1718
3212 3613 1750
3180 3629 1783
3180 3645 1943
3212 3661 1991
3196 3661 2104
3212 3645 2184
3180 3645 2248
3196 3677 2425
3212 3694 2553
3228 3677 2618
3228 3726 2778
3244 3742 2923
3276 3774 3099
3292 3758 3164
3308 3774 3292
225 0 0
241 0 64
225 0 225
257 0 385
257 0 482
305 0 594
321 0 755
305 0 851
241 32 1028
209 48 1172
112 80 1349
48 80 1510
0 80 1638
209 16 1734
353 0 1847
385 0 1943
434 0 2023
225 64 64
225 32 177
209 32 305
241 32 434
257 64 562
273 48 674
289 80 819
257 96 980
209 112 1092
145 96 1220
48 128 1413
64 128 1558
112 96 1670
241 48 1734
337 48 1831
418 48 1943
482 32 2023
273 177 273
289 177 353
273 177 450
241 161 546
225 209 723
225 177 787
177 193 947
225 177 1044
80 193 1204
64 193 1317
64 193 1461
193 145 1558
321 128 1654
337 112 1766
353 145 1863
418 128 1943
482 128 2039
353 289 498
321 289 530
305 305 658
273 289 739
225 305 867
161 305 996
145 289 1092
80 289 1188
209 273 1301
241 257 1381
257 257 1493
321 257 1590
385 257 1686
401 225 1750
482 241 1847
450 257 1959
610 241 2039
450 385 610
450 385 691
418 385 755
434 385 835
385 385 915
353 369 1028
385 385 1140
385 369 1204
353 369 1317
401 369 1397
401 369 1477
450 353 1590
434 385 1686
418 369 1783
546 369 1895
594 353 1959
626 353 2039
546 482 642
562 498 723
546 498 771
514 498 867
530 482 931
514 482 1044
498 482 1140
482 482 1220
498 498 1317
466 482 1397
514 498 1526
514 498 1622
562 498 1702
594 466 1783
610 482 1863
674 498 1959
771 482 2056
658 610 723
658 610 739
642 626 819
626 610 899
626 626 980
626 610 1044
626 594 1108
610 610 1220
594 594 1317
626 610 1413
642 610 1526
642 626 1622
723 626 1686
707 610 1815
755 626 1895
819 642 1975
899 626 2072
787 723 739
803 739 787
787 755 835
755 739 899
755 739 980
739 755 1076
771 755 1172
755 739 1237
723 739 1333
771 755 1445
787 755 1526
835 755 1606
867 739 1718
899 771 1815
915 771 1895
980 787 2007
1044 771 2072
915 883 755
931 883 819
899 883 867
915 883 915
931 899 1012
899 899 1076
899 883 1172
915 899 1269
931 899 1333
947 899 1445
980 899 1542
980 883 1606
1044 915 1734
1060 931 1815
1124 915 1911
1140 931 1991
1237 947 2088
1108 1060 835
1092 1060 867
1092 1060 883
1076 1044 947
1076 1060 1044
1092 1060 1092
1140 1076 1204
1140 1076 1285
1140 1076 1365
1172 1076 1445
1172 1092 1542
1253 1124 1670
1301 1108 1734
1333 1108 1831
1381 1124 1943
1397 1140 2023
1477 1156 2120
1333 1285 867
1333 1285 883
1333 1285 915
1349 1285 980
1317 1285 1044
1349 1285 1108
1333 1269 1204
1397 1285 1301
1413 1301 1381
1413 1317 1477
1445 1317 1542
1493 1317 1638
1526 1333 1750
1606 1349 1863
1638 1365 1943
1702 1381 2023
1750 1381 2104
1638 1542 883
1654 1542 899
1638 1558 931
1638 1542 980
1622 1558 1076
1638 1558 1156
1654 1542 1204
1718 1590 1301
1718 1574 1397
1783 1590 1493
1783 1574 1574
1799 1590 1654
1879 1606 1734
1975 1654 1847
1991 1622 1959
2056 1670 2039
2120 1686 2168
2039 1863 851
2056 1879 883
2023 1879 915
2039 1879 980
2072 1911 1012
2072 1895 1092
2088 1895 1188
2104 1895 1253
2168 1927 1317
2184 1911 1413
2200 1911 1461
2216 1911 1558
2329 1927 1622
2361 1943 1734
2457 1975 1783
2537 1991 1879
2585 2007 1943
2521 2248 418
2521 2248 530
2537 2296 514
2521 2248 610
2505 2248 691
2521 2248 819
2553 2264 883
2585 2280 964
2602 2280 1108
2650 2296 1204
2682 2296 1269
2762 2345 1397
2762 2345 1493
2858 2361 1558
2858 2361 1686
2955 2393 1783
3019 2425 1927
2923 2698 418
2907 2682 482
2907 2682 466
2907 2698 594
2923 2714 723
2939 2698 803
2939 2698 931
2987 2730 1076
2971 2714 1188
3035 2778 1349
3051 2762 1445
3083 2778 1574
3083 2762 1654
3164 2842 1831
3196 2858 1975
3228 2891 2136
3260 2858 2216
3148 3196 1092
3131 3196 1092
3099 3131 1076
3115 3180 1204
3115 3180 1237
3148 3180 1317
3164 3196 1477
3148 3180 1542
3164 3228 1718
3180 3212 1815
3212 3228 1927
3180 3260 2088
3260 3276 2248
3276 3292 2361
3292 3276 2457
3308 3324 2585
3340 3372 2810
3212 3613 1702
3228 3613 1718
3244 3661 1831
3196 3613 1783
3196 3613 1863
3212 3661 1991
3228 3645 2104
3212 3645 2168
3228 3677 2329
3228 3677 2425
3228 3694 2537
3260 3726 2698
3260 3710 2778
3292 3726 2907
3276 3758 3083
3292 3774 3196
3308 3822 3340
434 0 64
401 0 177
369 0 289
369 0 418
401 0 578
385 0 658
353 32 835
337 64 980
321 64 1092
257 80 1237
177 96 1413
145 64 1526
241 48 1654
353 0 1734
434 0 1847
466 16 1943
530 0 2039
401 48 209
385 48 289
369 32 385
401 48 498
369 48 610
337 80 739
321 96 899
289 96 996
273 112 1140
241 112 1285
128 128 1429
289 80 1574
353 64 1670
353 48 1766
401 32 1847
482 16 1943
